src/assets/svg/docker.svg

<?xml version="1.0" encoding="UTF-8"?>
<!-- Uploaded to: SVG Repo, www.svgrepo.com, Generator: SVG Repo Mixer Tools -->
<svg width="800px" height="800px" viewBox="0 -190.5 512 512" version="1.1" xmlns="http://www.w3.org/2000/svg" xmlns:xlink="http://www.w3.org/1999/xlink" preserveAspectRatio="xMidYMid">
    <g>
        <path d="M140.597857,25.715353 L144.490155,28.5334738 C151.259367,33.993583 155.151665,40.1582224 155.997817,47.2035244 C163.274721,45.7944644 172.582389,46.8512597 176.643917,49.6693803 L176.643917,49.6693803 L180.366984,51.9591037 L179.690064,53.3681638 C178.505451,56.010152 178.16699,56.7146826 177.99776,57.0669478 C171.397777,70.276889 158.367041,70.4530219 152.27475,70.276889 C136.87479,108.849919 104.044105,130.161957 59.7057585,130.161957 C39.2288883,130.161957 23.6596978,123.645053 13.1674172,110.787377 C-0.709469964,93.8786517 -0.709469964,71.8620819 0.47514237,64.8167801 L0.47514237,64.8167801 L0.813603044,63.4077196 L123.167133,63.4077196 C129.597885,63.4077196 134.505565,61.6463943 136.87479,60.2373337 C134.336335,56.3624173 133.490183,51.9591037 133.320953,49.4932479 C132.813262,42.4479456 134.505565,35.0503783 137.890171,29.7664017 L137.890171,29.7664017 L140.597857,25.715353 Z M246.612381,33.8938009 C247.977599,33.8938009 249.133362,34.3514521 250.079706,35.2667683 C251.02605,36.1820845 251.499214,37.3378478 251.499214,38.7340928 L251.499214,82.2967197 C251.499214,89.557194 248.954984,95.7005798 243.866446,100.727062 C238.715854,105.815599 232.572468,108.35983 225.436104,108.35983 C218.237685,108.35983 212.0943,105.815599 207.005762,100.727062 C201.917225,95.6385242 199.372994,89.4951384 199.372994,82.2967197 C199.372994,75.0983009 201.917225,68.9549151 207.005762,63.8663777 C212.0943,58.7778402 218.237685,56.2336096 225.436104,56.2336096 C231.61061,56.2336096 237.055884,58.1417825 241.772089,61.9581856 L241.772089,38.7340928 C241.772089,37.3378478 242.229741,36.1820845 243.145057,35.2667683 C244.060373,34.3514521 245.216136,33.8938009 246.612381,33.8938009 Z M283.102597,56.2336096 C290.238961,56.2336096 296.382346,58.7778402 301.532939,63.8663777 C304.077208,66.4106464 305.977624,69.2186078 307.234244,72.2903471 C308.490865,75.3620859 309.134679,78.6975103 309.165707,82.2967197 C309.165707,89.557194 306.621476,95.7005798 301.532939,100.727062 C296.382346,105.815599 290.238961,108.35983 283.102597,108.35983 C275.904178,108.35983 269.760792,105.815599 264.672255,100.727062 C259.583717,95.6385242 257.039487,89.4951384 257.039487,82.2967197 C257.039487,75.0983009 259.583717,68.9549151 264.672255,63.8663777 C269.760792,58.7778402 275.904178,56.2336096 283.102597,56.2336096 Z M340.676007,56.2336096 C347.222845,56.2336096 352.885309,58.3434592 357.66357,62.5632223 C358.780566,63.5561073 359.339056,64.7816816 359.339056,66.2399822 C359.339056,67.6362272 358.881405,68.7997474 357.966088,69.7305774 C357.050772,70.6614074 355.895009,71.1268153 354.498764,71.1268153 C353.319712,71.1268153 352.264787,70.754489 351.333957,70.0098252 C349.751547,68.6756352 348.091591,67.6672512 346.354042,66.9846425 C344.616493,66.3020337 342.723833,65.9607344 340.676007,65.9607344 C338.410988,65.9607344 336.285624,66.3873586 334.299853,67.2406195 C332.314083,68.0938804 330.576559,69.2574006 329.087231,70.7312147 C327.597903,72.2050288 326.426627,73.9347953 325.573366,75.9205659 C324.720105,77.9063366 324.293481,80.0316997 324.293481,82.2967197 C324.293481,84.5617396 324.720105,86.6871028 325.573366,88.6728734 C326.426627,90.6586441 327.597903,92.3884106 329.087231,93.8622247 C330.576559,95.3360387 332.314083,96.4995589 334.299853,97.3528199 C336.285624,98.2060808 338.410988,98.632705 340.676007,98.632705 C342.723833,98.632705 344.616493,98.2991624 346.354042,97.6320677 C348.091591,96.9649724 349.736033,95.9643452 351.287416,94.6301557 C352.156191,93.9785745 353.180089,93.6372757 354.35914,93.6062476 C355.755385,93.6062476 356.911148,94.0638989 357.826464,94.9792153 C358.74178,95.8945313 359.199432,97.0502948 359.199432,98.4465398 C359.199432,99.8117572 358.687483,101.006304 357.66357,102.030218 C352.854281,106.24998 347.191817,108.35983 340.676007,108.35983 C333.477588,108.35983 327.334203,105.815599 322.245665,100.727062 C317.157128,95.6385242 314.612897,89.4951384 314.612897,82.2967197 C314.612897,75.0983009 317.157128,68.9549151 322.245665,63.8663777 C327.334203,58.7778402 333.477588,56.2336096 340.676007,56.2336096 Z M369.71962,33.8938009 C371.05381,33.8938009 372.194059,34.3669658 373.140403,35.3133096 C374.086747,36.2596534 374.559912,37.4154167 374.559912,38.780634 L374.559912,75.082823 L402.39159,56.9782699 C403.167282,56.4818273 404.036044,56.2336096 404.997901,56.2336096 C405.68051,56.2336096 406.316568,56.3577182 406.906093,56.60594 C407.495619,56.8541612 408.007568,57.2032168 408.441955,57.6531183 C408.876342,58.1030193 409.225399,58.6227251 409.489134,59.2122507 C409.752869,59.8017764 409.884735,60.4223205 409.884735,61.0739017 C409.884735,62.8114506 409.26419,64.0990799 408.023084,64.9368268 L388.522292,77.5960517 L408.535038,100.122026 C409.43484,101.114911 409.884735,102.247404 409.884735,103.519538 C409.884735,104.171119 409.752869,104.791663 409.489134,105.381189 C409.225399,105.970714 408.876342,106.49042 408.441955,106.940321 C408.007568,107.390222 407.495619,107.739278 406.906093,107.9875 C406.316568,108.235721 405.68051,108.35983 404.997901,108.35983 C403.694739,108.35983 402.608787,107.940962 401.740012,107.103215 L380.237947,82.9482974 L374.559912,86.6715988 L374.559912,103.472997 C374.559912,104.807187 374.086747,105.955193 373.140403,106.91705 C372.194059,107.878908 371.05381,108.35983 369.71962,108.35983 C368.354403,108.35983 367.19864,107.878908 366.252296,106.91705 C365.305952,105.955193 364.832787,104.807187 364.832787,103.472997 L364.832787,38.780634 C364.832787,37.4154167 365.305952,36.2596534 366.252296,35.3133096 C367.19864,34.3669658 368.354403,33.8938009 369.71962,33.8938009 Z M441.208869,56.2336096 C448.345233,56.2336096 454.488619,58.7778402 459.639211,63.8663777 C462.18348,66.3796184 464.091653,69.1798235 465.363787,72.2670763 C466.635922,75.3543291 467.271979,78.6975103 467.271979,82.2967197 C467.271979,83.6929647 466.798815,84.8487281 465.852471,85.7640441 C464.906127,86.6793601 463.750364,87.1370118 462.385146,87.1370118 L425.524462,87.1370118 C426.051932,88.8435331 426.827613,90.40265 427.851526,91.814409 C428.875438,93.226168 430.077743,94.4362288 431.458474,95.4446278 C432.839205,96.4530269 434.359538,97.236464 436.019518,97.7949621 C437.679498,98.3534602 439.409265,98.632705 441.208869,98.632705 C443.256696,98.632705 445.133841,98.3224326 446.840363,97.7018795 C448.546885,97.0813258 450.129272,96.1505099 451.587572,94.9094035 C452.518402,94.1337117 453.588841,93.7303578 454.79892,93.6993302 C456.195165,93.6993302 457.350928,94.1569815 458.266244,95.0722979 C459.18156,95.9876139 459.639211,97.1433774 459.639211,98.5396224 C459.639211,99.9048393 459.173803,101.06836 458.242973,102.030218 C453.433685,106.24998 447.755707,108.35983 441.208869,108.35983 C434.010451,108.35983 427.867065,105.815599 422.778527,100.727062 C417.68999,95.6385242 415.145759,89.4951384 415.145759,82.2967197 C415.145759,75.0983009 417.68999,68.9549151 422.778527,63.8663777 C427.867065,58.7778402 434.010451,56.2336096 441.208869,56.2336096 Z M498.689199,56.2336096 C500.054412,56.2336096 501.520451,56.3266912 503.087349,56.5128574 C504.654242,56.6990231 506.097008,57.0325657 507.415687,57.5134947 C508.734361,57.9944232 509.828068,58.6537511 510.696843,59.4914985 C511.565618,60.3292454 512,61.4151975 512,62.749387 C512,63.4319957 511.868132,64.0680534 511.604401,64.657579 C511.340666,65.2471046 510.991606,65.7668104 510.557219,66.2167114 C510.122831,66.6666129 509.610886,67.015669 509.021359,67.2638903 C508.431831,67.5121115 507.795774,67.6362201 507.113167,67.6362201 C506.52364,67.6362201 505.841043,67.4655705 505.065352,67.1242661 C503.110606,66.3485748 500.985243,65.9607344 498.689199,65.9607344 C496.424177,65.9607344 494.298815,66.3873586 492.313046,67.2406195 C490.327273,68.0938804 488.597506,69.2574006 487.123692,70.7312147 C485.649878,72.2050288 484.486358,73.9347953 483.633097,75.9205659 C482.779836,77.9063366 482.353212,80.0316997 482.353212,82.2967197 L482.353212,103.519538 C482.353212,104.853728 481.880047,105.993977 480.933703,106.940321 C479.987359,107.886665 478.84711,108.35983 477.51292,108.35983 C476.147703,108.35983 474.99194,107.886665 474.045596,106.940321 C473.099252,105.993977 472.626087,104.853728 472.626087,103.519538 L472.626087,61.0739017 C472.626087,59.7397118 473.099252,58.5994623 474.045596,57.6531183 C474.99194,56.7067743 476.147703,56.2336096 477.51292,56.2336096 C478.84711,56.2336096 479.987359,56.7067743 480.933703,57.6531183 C481.880047,58.5994623 482.353212,59.7397118 482.353212,61.0739017 L482.353212,62.0047267 C484.680287,60.1430667 487.209004,58.7158157 489.939439,57.7229301 C492.669876,56.7300446 495.586431,56.2336096 498.689199,56.2336096 Z M225.436104,65.9607344 C223.140057,65.9607344 220.99918,66.3951153 219.013409,67.2638903 C217.027639,68.1326647 215.305629,69.3039416 213.847328,70.7777557 C212.389028,72.2515698 211.233265,73.9813363 210.380004,75.9671075 C209.526743,77.9528781 209.100119,80.0627278 209.100119,82.2967197 C209.100119,84.5307116 209.526743,86.6405612 210.380004,88.6263324 C211.233265,90.612103 212.389028,92.3418695 213.847328,93.8156836 C215.305629,95.2894977 217.027639,96.4607747 219.013409,97.3295491 C220.99918,98.198324 223.140057,98.632705 225.436104,98.632705 C227.701124,98.632705 229.826487,98.198324 231.812258,97.3295491 C233.798029,96.4607747 235.527795,95.2817409 237.001609,93.7924128 C238.475423,92.3030847 239.638943,90.5733182 240.492204,88.6030616 C241.345465,86.6328045 241.772089,84.5307116 241.772089,82.2967197 C241.772089,80.0627278 241.345465,77.9606349 240.492204,75.9903777 C239.638943,74.0201211 238.475423,72.2903546 237.001609,70.8010265 C235.527795,69.3116984 233.798029,68.1326647 231.812258,67.2638903 C229.826487,66.3951153 227.701124,65.9607344 225.436104,65.9607344 Z M283.102597,65.9607344 C280.806549,65.9607344 278.665673,66.3951153 276.679902,67.2638903 C274.694131,68.1326647 272.972122,69.3039416 271.513821,70.7777557 C270.055521,72.2515698 268.899758,73.9813363 268.046497,75.9671075 C267.193236,77.9528781 266.766612,80.0627278 266.766612,82.2967197 C266.766612,84.5307116 267.193236,86.6405612 268.046497,88.6263324 C268.899758,90.612103 270.055521,92.3418695 271.513821,93.8156836 C272.972122,95.2894977 274.694131,96.4607747 276.679902,97.3295491 C278.665673,98.198324 280.806549,98.632705 283.102597,98.632705 C285.367617,98.632705 287.49298,98.198324 289.478751,97.3295491 C291.464521,96.4607747 293.194288,95.2817409 294.668102,93.7924128 C296.141916,92.3030847 297.305436,90.5733182 298.158697,88.6030616 C299.011958,86.6328045 299.438582,84.5307116 299.438582,82.2967197 C299.438582,80.0627278 299.011958,77.9606349 298.158697,75.9903777 C297.305436,74.0201211 296.141916,72.2903546 294.668102,70.8010265 C293.194288,69.3116984 291.464521,68.1326647 289.478751,67.2638903 C287.49298,66.3951153 285.367617,65.9607344 283.102597,65.9607344 Z M441.208869,65.9607344 C439.440292,65.9607344 437.718283,66.2399792 436.042789,66.7984773 C434.367295,67.3569754 432.831448,68.1404124 431.435203,69.1488115 C430.038958,70.1572106 428.828897,71.3672713 427.804984,72.7790303 C426.781071,74.1907894 426.020905,75.7499062 425.524462,77.456428 L456.893277,77.456428 C456.365806,75.7499062 455.582369,74.1907894 454.542943,72.7790303 C453.503516,71.3672713 452.293455,70.1572106 450.912724,69.1488115 C449.531993,68.1404124 448.01166,67.3569754 446.35168,66.7984773 C444.691699,66.2399792 442.977446,65.9607344 441.208869,65.9607344 Z M32.6289054,42.271813 L32.6289054,59.8850684 L14.0135689,59.8850684 L14.0135689,42.271813 L32.6289054,42.271813 Z M54.6288487,42.271813 L54.6288487,59.8850684 L36.013512,59.8850684 L36.013512,42.271813 L54.6288487,42.271813 Z M76.6287917,42.271813 L76.6287917,59.8850684 L58.0134549,59.8850684 L58.0134549,42.271813 L76.6287917,42.271813 Z M98.6287348,42.271813 L98.6287348,59.8850684 L80.013398,59.8850684 L80.013398,42.271813 L98.6287348,42.271813 Z M120.628678,42.271813 L120.628678,59.8850684 L102.013341,59.8850684 L102.013341,42.271813 L120.628678,42.271813 Z M98.6287348,21.1359065 L98.6287348,38.749162 L80.013398,38.749162 L80.013398,21.1359065 L98.6287348,21.1359065 Z M76.6287917,21.1359065 L76.6287917,38.749162 L58.0134549,38.749162 L58.0134549,21.1359065 L76.6287917,21.1359065 Z M54.6288487,21.1359065 L54.6288487,38.749162 L36.013512,38.749162 L36.013512,21.1359065 L54.6288487,21.1359065 Z M98.6287348,0 L98.6287348,17.6132554 L80.013398,17.6132554 L80.013398,0 L98.6287348,0 Z" fill="#2396ED">
</path>
    </g>
</svg>

<svg xmlns="http://www.w3.org/2000/svg" width="800" height="800" preserveAspectRatio="xMidYMid" viewBox="0 -190.5 512 512"><path fill="#2396ED" d="m140.598 25.715 3.892 2.818c6.77 5.46 10.662 11.625 11.508 18.67 7.277-1.409 16.584-.352 20.646 2.466l3.723 2.29-.677 1.41c-1.185 2.641-1.523 3.346-1.692 3.698-6.6 13.21-19.631 13.386-25.723 13.21-15.4 38.573-48.23 59.885-92.57 59.885-20.476 0-36.045-6.517-46.538-19.375C-.709 93.88-.709 71.862.475 64.817l.339-1.41h122.353c6.43 0 11.339-1.76 13.708-3.17-2.539-3.875-3.385-8.278-3.554-10.744-.508-7.045 1.185-14.443 4.57-19.727zm106.014 8.179c1.366 0 2.521.457 3.468 1.373.946.915 1.42 2.07 1.42 3.467v43.563c0 7.26-2.545 13.404-7.634 18.43-5.15 5.089-11.294 7.633-18.43 7.633-7.198 0-13.342-2.544-18.43-7.633-5.089-5.088-7.633-11.232-7.633-18.43 0-7.199 2.544-13.342 7.633-18.43 5.088-5.09 11.232-7.633 18.43-7.633 6.175 0 11.62 1.908 16.336 5.724V38.734c0-1.396.458-2.552 1.373-3.467.915-.916 2.071-1.373 3.467-1.373m36.49 22.34c7.137 0 13.28 2.544 18.43 7.632 2.545 2.545 4.446 5.353 5.702 8.424 1.257 3.072 1.9 6.408 1.932 10.007 0 7.26-2.545 13.404-7.633 18.43-5.15 5.089-11.294 7.633-18.43 7.633-7.199 0-13.342-2.544-18.43-7.633-5.09-5.088-7.634-11.232-7.634-18.43 0-7.199 2.545-13.342 7.633-18.43 5.089-5.09 11.232-7.633 18.43-7.633m57.574 0c6.547 0 12.21 2.11 16.988 6.33 1.117.992 1.675 2.218 1.675 3.676 0 1.396-.458 2.56-1.373 3.49-.915.931-2.071 1.397-3.467 1.397a4.931 4.931 0 0 1-3.165-1.117c-1.582-1.334-3.242-2.343-4.98-3.025-1.738-.683-3.63-1.024-5.678-1.024-2.265 0-4.39.426-6.376 1.28a16.714 16.714 0 0 0-5.213 3.49 16.24 16.24 0 0 0-3.514 5.19c-.853 1.985-1.28 4.11-1.28 6.376 0 2.265.427 4.39 1.28 6.376a16.24 16.24 0 0 0 3.514 5.19 16.714 16.714 0 0 0 5.213 3.49c1.986.853 4.111 1.28 6.376 1.28 2.048 0 3.94-.334 5.678-1 1.738-.668 3.382-1.669 4.933-3.003.87-.651 1.893-.993 3.072-1.024 1.396 0 2.552.458 3.467 1.373.916.916 1.373 2.071 1.373 3.468 0 1.365-.512 2.56-1.535 3.583-4.81 4.22-10.472 6.33-16.988 6.33-7.198 0-13.342-2.544-18.43-7.633-5.089-5.088-7.633-11.232-7.633-18.43 0-7.199 2.544-13.342 7.633-18.43 5.088-5.09 11.232-7.633 18.43-7.633m29.044-22.34c1.334 0 2.474.473 3.42 1.42.947.946 1.42 2.101 1.42 3.467v36.302l27.832-18.105c.775-.496 1.644-.744 2.606-.744.683 0 1.319.124 1.908.372.59.248 1.102.597 1.536 1.047.434.45.783.97 1.047 1.56.264.589.396 1.21.396 1.86 0 1.738-.62 3.026-1.862 3.864l-19.5 12.66 20.012 22.525c.9.993 1.35 2.125 1.35 3.398 0 .651-.132 1.272-.396 1.861a5.397 5.397 0 0 1-1.047 1.56c-.434.45-.946.798-1.536 1.046a4.867 4.867 0 0 1-1.908.373c-1.303 0-2.39-.419-3.258-1.257l-21.502-24.155-5.678 3.724v16.801c0 1.334-.473 2.482-1.42 3.444-.946.962-2.086 1.443-3.42 1.443-1.366 0-2.521-.481-3.468-1.443-.946-.962-1.42-2.11-1.42-3.444V38.781c0-1.366.474-2.521 1.42-3.468.947-.946 2.102-1.42 3.468-1.42m71.489 22.34c7.136 0 13.28 2.544 18.43 7.632 2.544 2.514 4.453 5.314 5.725 8.401 1.272 3.087 1.908 6.43 1.908 10.03 0 1.396-.473 2.552-1.42 3.467-.946.915-2.102 1.373-3.467 1.373h-36.86a15.908 15.908 0 0 0 2.327 4.677 16.344 16.344 0 0 0 3.606 3.63 16.724 16.724 0 0 0 4.562 2.351c1.66.558 3.39.838 5.189.838 2.048 0 3.925-.31 5.631-.931 1.707-.62 3.29-1.551 4.748-2.793a5.085 5.085 0 0 1 3.21-1.21c1.397 0 2.553.458 3.468 1.373.916.916 1.373 2.071 1.373 3.468 0 1.365-.465 2.528-1.396 3.49-4.81 4.22-10.487 6.33-17.034 6.33-7.199 0-13.342-2.544-18.43-7.633-5.089-5.088-7.633-11.232-7.633-18.43 0-7.199 2.544-13.342 7.633-18.43 5.088-5.09 11.231-7.633 18.43-7.633m57.48 0c1.365 0 2.831.093 4.398.279 1.567.186 3.01.52 4.329 1 1.318.481 2.412 1.14 3.28 1.978.87.838 1.304 1.924 1.304 3.258 0 .683-.132 1.32-.396 1.909a5.397 5.397 0 0 1-1.047 1.559c-.434.45-.946.799-1.536 1.047a4.867 4.867 0 0 1-1.908.372c-.59 0-1.272-.17-2.048-.512-1.954-.775-4.08-1.163-6.376-1.163-2.265 0-4.39.426-6.376 1.28-1.986.853-3.715 2.016-5.19 3.49-1.473 1.474-2.637 3.204-3.49 5.19-.853 1.985-1.28 4.11-1.28 6.376v21.223c0 1.334-.473 2.474-1.42 3.42-.946.947-2.086 1.42-3.42 1.42-1.365 0-2.521-.473-3.467-1.42-.947-.946-1.42-2.086-1.42-3.42V61.074c0-1.334.473-2.475 1.42-3.42.946-.947 2.102-1.42 3.467-1.42 1.334 0 2.474.473 3.42 1.42.947.945 1.42 2.086 1.42 3.42v.93a26.669 26.669 0 0 1 7.586-4.281c2.73-.993 5.647-1.49 8.75-1.49M225.436 65.96c-2.296 0-4.437.434-6.423 1.303-1.985.869-3.707 2.04-5.166 3.514-1.458 1.474-2.614 3.203-3.467 5.19-.853 1.985-1.28 4.095-1.28 6.329s.427 4.344 1.28 6.33c.853 1.985 2.009 3.715 3.467 5.189 1.459 1.473 3.18 2.645 5.166 3.514 1.986.868 4.127 1.303 6.423 1.303 2.265 0 4.39-.435 6.376-1.303a16.56 16.56 0 0 0 5.19-3.538 16.79 16.79 0 0 0 3.49-5.189c.853-1.97 1.28-4.072 1.28-6.306s-.427-4.336-1.28-6.307a16.79 16.79 0 0 0-3.49-5.189 16.56 16.56 0 0 0-5.19-3.537c-1.986-.869-4.11-1.303-6.376-1.303m57.667 0c-2.296 0-4.437.434-6.423 1.303-1.986.869-3.708 2.04-5.166 3.514-1.458 1.474-2.614 3.203-3.468 5.19-.853 1.985-1.28 4.095-1.28 6.329s.427 4.344 1.28 6.33c.854 1.985 2.01 3.715 3.468 5.189 1.458 1.473 3.18 2.645 5.166 3.514 1.986.868 4.127 1.303 6.423 1.303 2.265 0 4.39-.435 6.376-1.303a16.56 16.56 0 0 0 5.19-3.538 16.79 16.79 0 0 0 3.49-5.189c.853-1.97 1.28-4.072 1.28-6.306s-.427-4.336-1.28-6.307a16.79 16.79 0 0 0-3.49-5.189 16.56 16.56 0 0 0-5.19-3.537c-1.986-.869-4.111-1.303-6.376-1.303m158.106 0c-1.769 0-3.49.279-5.166.837a17 17 0 0 0-4.608 2.35 16.12 16.12 0 0 0-3.63 3.631 15.074 15.074 0 0 0-2.28 4.677h31.368a15.597 15.597 0 0 0-2.35-4.677 16.783 16.783 0 0 0-3.63-3.63 16.724 16.724 0 0 0-4.561-2.35 16.02 16.02 0 0 0-5.143-.838M32.629 42.27v17.614H14.014V42.272zm22 0v17.614H36.014V42.272zm22 0v17.614H58.013V42.272zm22 0v17.614H80.013V42.272zm22 0v17.614h-18.616V42.272zm-22-21.135v17.613H80.013V21.136zm-22 0v17.613H58.013V21.136zm-22 0v17.613H36.014V21.136zM98.629 0v17.613H80.013V0z"/></svg>
